styles/2/Numix-Circle/48x48/apps/mansa.svg

<?xml version="1.0" encoding="UTF-8" standalone="no"?>
<svg
   xmlns:dc="http://purl.org/dc/elements/1.1/"
   xmlns:cc="http://creativecommons.org/ns#"
   xmlns:rdf="http://www.w3.org/1999/02/22-rdf-syntax-ns#"
   xmlns:svg="http://www.w3.org/2000/svg"
   xmlns="http://www.w3.org/2000/svg"
   xmlns:sodipodi="http://sodipodi.sourceforge.net/DTD/sodipodi-0.dtd"
   xmlns:inkscape="http://www.inkscape.org/namespaces/inkscape"
   viewBox="0 0 48 48"
   id="svg4334"
   version="1.1"
   inkscape:version="0.91 r"
   width="100%"
   height="100%"
   sodipodi:docname="mansa.svg">
  <metadata
     id="metadata4397">
    <rdf:RDF>
      <cc:Work
         rdf:about="">
        <dc:format>image/svg+xml</dc:format>
        <dc:type
           rdf:resource="http://purl.org/dc/dcmitype/StillImage" />
      </cc:Work>
    </rdf:RDF>
  </metadata>
  <sodipodi:namedview
     pagecolor="#ffffff"
     bordercolor="#666666"
     borderopacity="1"
     objecttolerance="10"
     gridtolerance="10"
     guidetolerance="10"
     inkscape:pageopacity="0"
     inkscape:pageshadow="2"
     inkscape:window-width="1280"
     inkscape:window-height="998"
     id="namedview4395"
     showgrid="true"
     inkscape:zoom="6.9532167"
     inkscape:cx="6.2132003"
     inkscape:cy="26.486272"
     inkscape:window-x="0"
     inkscape:window-y="0"
     inkscape:window-maximized="1"
     inkscape:current-layer="svg4334">
    <inkscape:grid
       type="xygrid"
       id="grid6539" />
  </sodipodi:namedview>
  <defs
     id="defs4336">
    <linearGradient
       id="linearGradient3764"
       x1="1"
       x2="47"
       gradientUnits="userSpaceOnUse"
       gradientTransform="matrix(0,-1,1,0,-1.5e-6,47.999998)">
      <stop
         stop-color="#b94f33"
         stop-opacity="1"
         id="stop4339" />
      <stop
         offset="1"
         stop-color="#c85637"
         stop-opacity="1"
         id="stop4341" />
    </linearGradient>
  </defs>
  <g
     id="g4353">
    <path
       d="m 36.31 5 c 5.859 4.062 9.688 10.831 9.688 18.5 c 0 12.426 -10.07 22.5 -22.5 22.5 c -7.669 0 -14.438 -3.828 -18.5 -9.688 c 1.037 1.822 2.306 3.499 3.781 4.969 c 4.085 3.712 9.514 5.969 15.469 5.969 c 12.703 0 23 -10.298 23 -23 c 0 -5.954 -2.256 -11.384 -5.969 -15.469 c -1.469 -1.475 -3.147 -2.744 -4.969 -3.781 z m 4.969 3.781 c 3.854 4.113 6.219 9.637 6.219 15.719 c 0 12.703 -10.297 23 -23 23 c -6.081 0 -11.606 -2.364 -15.719 -6.219 c 4.16 4.144 9.883 6.719 16.219 6.719 c 12.703 0 23 -10.298 23 -23 c 0 -6.335 -2.575 -12.06 -6.719 -16.219 z"
       opacity="0.05"
       id="path4355" />
    <path
       d="m 41.28 8.781 c 3.712 4.085 5.969 9.514 5.969 15.469 c 0 12.703 -10.297 23 -23 23 c -5.954 0 -11.384 -2.256 -15.469 -5.969 c 4.113 3.854 9.637 6.219 15.719 6.219 c 12.703 0 23 -10.298 23 -23 c 0 -6.081 -2.364 -11.606 -6.219 -15.719 z"
       opacity="0.1"
       id="path4357" />
    <path
       d="m 31.25 2.375 c 8.615 3.154 14.75 11.417 14.75 21.13 c 0 12.426 -10.07 22.5 -22.5 22.5 c -9.708 0 -17.971 -6.135 -21.12 -14.75 a 23 23 0 0 0 44.875 -7 a 23 23 0 0 0 -16 -21.875 z"
       opacity="0.2"
       id="path4359" />
  </g>
  <g
     id="g4361">
    <path
       d="m 24 1 c 12.703 0 23 10.297 23 23 c 0 12.703 -10.297 23 -23 23 -12.703 0 -23 -10.297 -23 -23 0 -12.703 10.297 -23 23 -23 z"
       fill="url(#linearGradient3764)"
       fill-opacity="1"
       id="path4363" />
  </g>
  <g
     id="g4365" />
  <g
     id="g4391">
    <path
       d="m 40.03 7.531 c 3.712 4.084 5.969 9.514 5.969 15.469 0 12.703 -10.297 23 -23 23 c -5.954 0 -11.384 -2.256 -15.469 -5.969 4.178 4.291 10.01 6.969 16.469 6.969 c 12.703 0 23 -10.298 23 -23 0 -6.462 -2.677 -12.291 -6.969 -16.469 z"
       opacity="0.1"
       id="path4393" />
  </g>
  <path
     inkscape:connector-curvature="0"
     style="opacity:0.1;fill:#000000;fill-opacity:1;fill-rule:nonzero;stroke:none"
     d="m 15.750018,15 c -0.391,0 -0.75,0.421843 -0.75,0.875 l 0,1.125 -1.09375,0 -0.09375,0 c -0.440999,0.04301 -0.8155,0.418726 -0.8125,0.84375 l 0,16.28125 c 0,0.453026 0.434251,0.875 0.90625,0.875 l 22.1875,0 c 0.468999,0 0.90625,-0.421974 0.90625,-0.875 l 0,-14.21875 C 37.000018,19.457227 36.561767,19 36.093768,19 l -1.09375,0 0,-3.125 c 0,-0.454175 -0.355,-0.875 -0.75,-0.875 l -18.5,0 z"
     id="path3060" />
  <path
     style="fill:#b29c9c;fill-opacity:1;fill-rule:nonzero;stroke:none"
     inkscape:connector-curvature="0"
     id="path57"
     d="m 14.000018,20 0,-5.132383 c 0,-0.453157 0.359,-0.867617 0.75,-0.867617 l 18.5,0 c 0.395,0 0.75,0.413442 0.75,0.867617 l 0,5.132383 m -20,0" />
  <path
     style="fill:#ecedf1;fill-opacity:1;fill-rule:nonzero;stroke:none"
     inkscape:connector-curvature="0"
     id="path59"
     d="m 12.813017,16 c -0.440999,0.04301 -0.815999,0.434024 -0.812999,0.859048 l 0,16.277904 c 0,0.453026 0.43,0.863048 0.901999,0.863048 l 22.199984,0 C 35.571,34 36,33.589978 36,33.136952 L 36,18.89416 C 36,18.445137 35.57,18 35.102001,18 l -9.101983,0 0,-1.124951 C 26.000018,16.426024 25.543008,16 25.075008,16 l -12.175991,0 c -0.027,0 -0.059,0 -0.09,0"
     sodipodi:nodetypes="ccsssssscsssc" />
  <path
     inkscape:connector-curvature="0"
     style="fill:#b29c9c;fill-opacity:1;fill-rule:evenodd;stroke:none"
     d="m 18,20 0,2.21875 c -0.59573,0.259756 -1,0.727202 -1,1.28125 0,0.554048 0.40427,1.021494 1,1.28125 L 18,32 l 2,0 0,-7.21875 C 20.59573,24.521494 21,24.054048 21,23.5 21,22.945952 20.59573,22.478506 20,22.21875 L 20,20 18,20 z m 5,0 0,7.21875 c -0.59573,0.259756 -1,0.727202 -1,1.28125 0,0.554048 0.40427,1.021494 1,1.28125 L 23,32 l 2,0 0,-2.21875 C 25.59573,29.521494 26,29.054048 26,28.5 26,27.945952 25.59573,27.478506 25,27.21875 L 25,20 23,20 z m 5,0 0,2.21875 c -0.59573,0.259756 -1,0.727202 -1,1.28125 0,0.554048 0.40427,1.021494 1,1.28125 L 28,32 l 2,0 0,-7.21875 C 30.59573,24.521494 31,24.054048 31,23.5 31,22.945952 30.59573,22.478506 30,22.21875 L 30,20 28,20 z"
     id="rect3104" />
</svg>

<svg xmlns="http://www.w3.org/2000/svg" viewBox="0 0 48 48">
 <defs>
  <linearGradient id="linearGradient3764" x1="1" x2="47" gradientUnits="userSpaceOnUse" gradientTransform="matrix(0,-1,1,0,-1.5e-6,47.999998)">
   <stop style="stop-color:#b94f33;stop-opacity:1"/>
   <stop offset="1" style="stop-color:#c85637;stop-opacity:1"/>
  </linearGradient>
 </defs>
 <g>
  <path d="m 36.31 5 c 5.859 4.062 9.688 10.831 9.688 18.5 c 0 12.426 -10.07 22.5 -22.5 22.5 c -7.669 0 -14.438 -3.828 -18.5 -9.688 c 1.037 1.822 2.306 3.499 3.781 4.969 c 4.085 3.712 9.514 5.969 15.469 5.969 c 12.703 0 23 -10.298 23 -23 c 0 -5.954 -2.256 -11.384 -5.969 -15.469 c -1.469 -1.475 -3.147 -2.744 -4.969 -3.781 z m 4.969 3.781 c 3.854 4.113 6.219 9.637 6.219 15.719 c 0 12.703 -10.297 23 -23 23 c -6.081 0 -11.606 -2.364 -15.719 -6.219 c 4.16 4.144 9.883 6.719 16.219 6.719 c 12.703 0 23 -10.298 23 -23 c 0 -6.335 -2.575 -12.06 -6.719 -16.219 z" style="opacity:0.05"/>
  <path d="m 41.28 8.781 c 3.712 4.085 5.969 9.514 5.969 15.469 c 0 12.703 -10.297 23 -23 23 c -5.954 0 -11.384 -2.256 -15.469 -5.969 c 4.113 3.854 9.637 6.219 15.719 6.219 c 12.703 0 23 -10.298 23 -23 c 0 -6.081 -2.364 -11.606 -6.219 -15.719 z" style="opacity:0.1"/>
  <path d="m 31.25 2.375 c 8.615 3.154 14.75 11.417 14.75 21.13 c 0 12.426 -10.07 22.5 -22.5 22.5 c -9.708 0 -17.971 -6.135 -21.12 -14.75 a 23 23 0 0 0 44.875 -7 a 23 23 0 0 0 -16 -21.875 z" style="opacity:0.2"/>
 </g>
 <g>
  <path d="m 24 1 c 12.703 0 23 10.297 23 23 c 0 12.703 -10.297 23 -23 23 -12.703 0 -23 -10.297 -23 -23 0 -12.703 10.297 -23 23 -23 z" style="fill:url(#linearGradient3764);fill-opacity:1"/>
 </g>
 <g>
  <path d="m 40.03 7.531 c 3.712 4.084 5.969 9.514 5.969 15.469 0 12.703 -10.297 23 -23 23 c -5.954 0 -11.384 -2.256 -15.469 -5.969 4.178 4.291 10.01 6.969 16.469 6.969 c 12.703 0 23 -10.298 23 -23 0 -6.462 -2.677 -12.291 -6.969 -16.469 z" style="opacity:0.1"/>
 </g>
 <path d="m 15.75 15 c -0.391 0 -0.75 0.422 -0.75 0.875 l 0 1.125 -1.094 0 -0.094 0 c -0.441 0.043 -0.816 0.419 -0.813 0.844 l 0 16.281 c 0 0.453 0.434 0.875 0.906 0.875 l 22.19 0 c 0.469 0 0.906 -0.422 0.906 -0.875 l 0 -14.219 c 0 -0.449 -0.438 -0.906 -0.906 -0.906 l -1.094 0 0 -3.125 c 0 -0.454 -0.355 -0.875 -0.75 -0.875 l -18.5 0 z" style="fill:#000;opacity:0.1;fill-opacity:1;stroke:none;fill-rule:nonzero"/>
 <path d="m 14 20 0 -5.132 c 0 -0.453 0.359 -0.868 0.75 -0.868 l 18.5 0 c 0.395 0 0.75 0.413 0.75 0.868 l 0 5.132 m -20 0" style="fill:#b29c9c;fill-opacity:1;stroke:none;fill-rule:nonzero"/>
 <path d="m 12.813 16 c -0.441 0.043 -0.816 0.434 -0.813 0.859 l 0 16.278 c 0 0.453 0.43 0.863 0.902 0.863 l 22.2 0 c 0.469 0 0.898 -0.41 0.898 -0.863 l 0 -14.243 c 0 -0.449 -0.43 -0.894 -0.898 -0.894 l -9.102 0 0 -1.125 c 0 -0.449 -0.457 -0.875 -0.925 -0.875 l -12.176 0 c -0.027 0 -0.059 0 -0.09 0" style="fill:#ecedf1;fill-opacity:1;stroke:none;fill-rule:nonzero"/>
 <path d="m 18 20 0 2.219 c -0.596 0.26 -1 0.727 -1 1.281 0 0.554 0.404 1.021 1 1.281 l 0 7.219 l 2 0 0 -7.219 c 0.596 -0.26 1 -0.727 1 -1.281 0 -0.554 -0.404 -1.021 -1 -1.281 l 0 -2.219 -2 0 z m 5 0 0 7.219 c -0.596 0.26 -1 0.727 -1 1.281 0 0.554 0.404 1.021 1 1.281 l 0 2.219 l 2 0 0 -2.219 c 0.596 -0.26 1 -0.727 1 -1.281 0 -0.554 -0.404 -1.021 -1 -1.281 l 0 -7.219 -2 0 z m 5 0 0 2.219 c -0.596 0.26 -1 0.727 -1 1.281 0 0.554 0.404 1.021 1 1.281 l 0 7.219 l 2 0 0 -7.219 c 0.596 -0.26 1 -0.727 1 -1.281 0 -0.554 -0.404 -1.021 -1 -1.281 l 0 -2.219 -2 0 z" style="fill:#b29c9c;fill-opacity:1;stroke:none;fill-rule:evenodd"/>
</svg>
